bell/images/insta.svg

<svg width="18" height="18" viewBox="0 0 18 18" fill="none" xmlns="http://www.w3.org/2000/svg">
<path d="M6.00073 9C6.00073 7.34321 7.34351 6 9.00037 6C10.6572 6 12.0007 7.34321 12.0007 9C12.0007 10.6568 10.6572 12 9.00037 12C7.34351 12 6.00073 10.6568 6.00073 9ZM4.37878 9C4.37878 11.5524 6.44784 13.6216 9.00037 13.6216C11.5529 13.6216 13.6219 11.5524 13.6219 9C13.6219 6.44758 11.5529 4.37842 9.00037 4.37842C6.44784 4.37842 4.37878 6.44758 4.37878 9ZM12.7248 4.19531C12.7248 4.79143 13.2083 5.27588 13.8052 5.27588C14.4013 5.27588 14.8855 4.79143 14.8855 4.19531C14.8855 3.59918 14.4021 3.11572 13.8052 3.11572C13.2083 3.11572 12.7248 3.59918 12.7248 4.19531ZM5.36386 16.3257C4.48636 16.2857 4.00945 16.1397 3.69247 16.0161C3.27226 15.8525 2.97275 15.6576 2.65723 15.3428C2.34243 15.028 2.14686 14.7288 1.98401 14.3086C1.86042 13.9916 1.71427 13.5147 1.67429 12.6372C1.63067 11.6885 1.62195 11.4034 1.62195 9C1.62195 6.59661 1.63139 6.31223 1.67429 5.36279C1.71427 4.48533 1.86114 4.0091 1.98401 3.69141C2.14759 3.27122 2.34243 2.97176 2.65723 2.65625C2.97202 2.34147 3.27154 2.14624 3.69247 1.9834C4.00945 1.85981 4.48636 1.71332 5.36386 1.67334C6.31261 1.62972 6.5976 1.62109 9.00037 1.62109C11.4039 1.62109 11.6881 1.63044 12.6376 1.67334C13.5151 1.71332 13.9913 1.86054 14.309 1.9834C14.7292 2.14624 15.0287 2.34147 15.3442 2.65625C15.659 2.97103 15.8539 3.27122 16.0175 3.69141C16.141 4.00837 16.2872 4.48533 16.3271 5.36279C16.3708 6.31223 16.3795 6.59661 16.3795 9C16.3795 11.4027 16.3708 11.6878 16.3271 12.6372C16.2872 13.5147 16.1403 13.9916 16.0175 14.3086C15.8539 14.7288 15.659 15.028 15.3442 15.3428C15.0294 15.6576 14.7292 15.8525 14.309 16.0161C13.992 16.1397 13.5151 16.2857 12.6376 16.3257C11.6888 16.3693 11.4039 16.3779 9.00037 16.3779C6.5976 16.3779 6.31261 16.3693 5.36386 16.3257ZM5.2897 0.0546875C4.33151 0.0983075 3.6772 0.250196 3.10504 0.472656C2.51326 0.702376 2.01162 1.01058 1.51071 1.51074C1.01053 2.0109 0.7023 2.51249 0.472565 3.10498C0.250101 3.67711 0.0981549 4.33139 0.0545349 5.28955C0.0101869 6.24916 0 6.5559 0 9C0 11.4441 0.0101869 11.7508 0.0545349 12.7104C0.0981549 13.6686 0.250101 14.3229 0.472565 14.895C0.7023 15.4868 1.0098 15.9891 1.51071 16.4893C2.01089 16.9894 2.51253 17.2969 3.10504 17.5273C3.67792 17.7498 4.33151 17.9017 5.2897 17.9453C6.25008 17.9889 6.55616 18 9.00037 18C11.4453 18 11.7514 17.9897 12.711 17.9453C13.6692 17.9017 14.3235 17.7498 14.8957 17.5273C15.4874 17.2969 15.9891 16.9894 16.49 16.4893C16.9902 15.9891 17.2977 15.4868 17.5282 14.895C17.7506 14.3229 17.9033 13.6686 17.9462 12.7104C17.9898 11.7501 18 11.4441 18 9C18 6.5559 17.9898 6.24916 17.9462 5.28955C17.9026 4.33139 17.7506 3.67711 17.5282 3.10498C17.2977 2.51322 16.9902 2.01163 16.49 1.51074C15.9898 1.01058 15.4875 0.702376 14.8964 0.472656C14.3235 0.250196 13.6692 0.0975875 12.7117 0.0546875C11.7521 0.0110675 11.4453 0 9.0011 0C6.55617 0 6.25008 0.0103475 5.2897 0.0546875Z" fill="#5A6482"/>
</svg>

<svg width="18" height="18" fill="none" xmlns="http://www.w3.org/2000/svg"><path d="M6 9a3 3 0 116 0 3 3 0 01-6 0zM4.38 9a4.622 4.622 0 109.243 0A4.622 4.622 0 004.38 9zm8.346-4.805a1.08 1.08 0 102.161 0 1.08 1.08 0 00-2.161 0zm-7.361 12.13c-.878-.04-1.355-.185-1.672-.309a2.8 2.8 0 01-1.035-.673 2.78 2.78 0 01-.673-1.034c-.124-.317-.27-.794-.31-1.672-.043-.949-.052-1.234-.052-3.637s.01-2.688.052-3.637c.04-.878.187-1.354.31-1.672a2.8 2.8 0 01.673-1.035c.315-.315.615-.51 1.035-.673.317-.123.794-.27 1.672-.31.949-.043 1.234-.052 3.636-.052 2.404 0 2.688.01 3.638.052.877.04 1.353.188 1.671.31.42.163.72.358 1.035.673.315.315.51.615.673 1.035.124.317.27.794.31 1.672.044.95.052 1.234.052 3.637s-.008 2.688-.052 3.637c-.04.878-.187 1.355-.31 1.672a2.79 2.79 0 01-.673 1.034c-.315.315-.615.51-1.035.673-.317.124-.794.27-1.671.31-.95.043-1.234.052-3.638.052-2.402 0-2.687-.009-3.636-.052zM5.29.056C4.332.098 3.677.25 3.105.473A4.416 4.416 0 001.511 1.51 4.39 4.39 0 00.473 3.104C.25 3.677.098 4.331.055 5.29.01 6.25 0 6.556 0 9s.01 2.75.055 3.71c.043.959.195 1.613.418 2.185a4.4 4.4 0 001.038 1.594c.5.5 1.002.808 1.594 1.038.573.223 1.227.375 2.185.418C6.25 17.99 6.556 18 9 18c2.445 0 2.751-.01 3.711-.055.958-.043 1.612-.195 2.185-.418a4.426 4.426 0 001.594-1.038c.5-.5.808-1.002 1.038-1.594.223-.572.375-1.226.418-2.185.044-.96.054-1.266.054-3.71s-.01-2.75-.054-3.71c-.043-.959-.195-1.613-.418-2.185a4.426 4.426 0 00-1.038-1.594c-.5-.5-1.002-.809-1.594-1.038C14.323.25 13.67.098 12.712.055 11.752.01 11.445 0 9.002 0 6.555 0 6.25.01 5.29.055z" fill="#5A6482"/></svg>
